src/main/resources/icons/JavaUltimateIcons/icons/cdi/cdi.svg

<svg xmlns="http://www.w3.org/2000/svg" width="16" height="16" viewBox="0 0 16 16">
  <g fill="none" fill-rule="evenodd">
    <path fill="#40B6E0" fill-opacity=".7" d="M1.74337885,8.34509168 L7.42983612,14.031274 C7.45891854,14.0966086 7.48936085,14.1612042 7.52112709,14.225025 L7.57937885,14.1810917 C5.99337885,15.4580917 3.96137885,15.0020917 2.44237885,13.4820917 C0.92237885,11.9630917 0.46637885,9.93009168 1.74337885,8.34509168 Z M7.48237885,8.44209168 C7.66697954,8.62681398 7.83587489,8.81913755 7.98785996,9.01733414 C7.36694837,9.8496653 7,10.88198 7,12 C7,12.1406062 7.00580383,12.2798568 7.01718498,12.4175253 L2.34337885,7.74309168 C3.92937885,6.46609168 5.96237885,6.92309168 7.48237885,8.44209168 Z M7.74337885,2.34509168 L12.4155396,7.01702122 C12.2785178,7.00574815 12.1399302,7 12,7 C10.8824313,7 9.85049883,7.36665214 9.01793178,7.98622719 C8.81975181,7.83634518 8.62726534,7.66709989 8.44237885,7.48209168 C6.92237885,5.96309168 6.46637885,3.93009168 7.74337885,2.34509168 Z M13.4823789,2.44209168 C14.948034,3.90871237 15.4236678,5.85449596 14.306228,7.41446758 L14.225025,7.52112709 C14.1602372,7.48887954 14.094651,7.45799635 14.0283038,7.42851513 L8.34337885,1.74309168 C9.92937885,0.466091676 11.9623789,0.923091676 13.4823789,2.44209168 Z"/>
    <path fill="#9AA7B0" d="M12,8 C9.792,8 8,9.792 8,12 C8,14.208 9.792,16 12,16 C14.208,16 16,14.208 16,12 C16,9.792 14.208,8 12,8 Z M11.6,15.172 C10.02,14.976 8.8,13.632 8.8,12 C8.8,11.752 8.832,11.516 8.884,11.284 L10.8,13.2 L10.8,13.6 C10.8,14.04 11.16,14.4 11.6,14.4 L11.6,15.172 Z M14.36,14.156 C14.256,13.832 13.96,13.6 13.6,13.6 L13.2,13.6 L13.2,12.4 C13.2,12.18 13.02,12 12.8,12 L10.4,12 L10.4,11.2 L11.2,11.2 C11.42,11.2 11.6,11.02 11.6,10.8 L11.6,10 L12.4,10 C12.84,10 13.2,9.64 13.2,9.2 L13.2,9.036 C14.372,9.512 15.2,10.66 15.2,12 C15.2,12.832 14.88,13.588 14.36,14.156 Z"/>
  </g>
</svg>

<svg xmlns="http://www.w3.org/2000/svg" width="16" height="16" viewBox="0 0 16 16"><rect id="frame" width="16" height="16" fill="none"/><g fill="none" fill-rule="evenodd"><path fill="#40B6E0" fill-opacity=".7" d="M1.743 8.345l5.687 5.686c.029.066.06.13.091.194l.058-.044c-1.586 1.277-3.618.821-5.137-.699C.922 11.963.466 9.93 1.743 8.345zm5.74.097c.184.185.353.377.505.575a4.97 4.97 0 0 0-.97 3.4L2.342 7.744c1.586-1.277 3.62-.82 5.14.7zm.26-6.097l4.673 4.672a4.978 4.978 0 0 0-3.398.97c-.198-.15-.39-.32-.576-.505-1.52-1.519-1.976-3.552-.699-5.137zm5.74.097c1.465 1.467 1.94 3.412.823 4.972l-.081.107a4.976 4.976 0 0 0-.197-.092L8.343 1.743c1.586-1.277 3.62-.82 5.14.7z"/><path fill="#9AA7B0" d="M12 8c-2.208 0-4 1.792-4 4s1.792 4 4 4 4-1.792 4-4-1.792-4-4-4zm-.4 7.172A3.195 3.195 0 0 1 8.8 12c0-.248.032-.484.084-.716L10.8 13.2v.4c0 .44.36.8.8.8v.772zm2.76-1.016a.794.794 0 0 0-.76-.556h-.4v-1.2c0-.22-.18-.4-.4-.4h-2.4v-.8h.8c.22 0 .4-.18.4-.4V10h.8c.44 0 .8-.36.8-.8v-.164c1.172.476 2 1.624 2 2.964 0 .832-.32 1.588-.84 2.156z"/></g></svg>
